!! 00000] TT[WS
!!!OTL: Yuer zhao huatai
!!!ARE: Asia, China, Shanxi Xingxian
!! Ethnic Group: Han
!! WII, 88 (2)
!!!SCT: J0529
!!!YEM: Copyright 1995, estate of Helmut Schaffrath.
**kern
*ICvox
*Ivox
*M2/4
*k[f#]
*G:
{4a
8a
8dd
=1
4.cc
8a
=2
8a
8a
8a
8dd
=3
2cc}
=4
{8a
4a
8dd
=5
4aa
8ff#
8ee
=6
8dd
8dd
8ee
8b
=7
2a}
=8
{8a
8a
4e
=9
8a
4dd
8b
=10
4a
8g
8e
=11
8a
16g
16e
4d}
=12
{8a
8e
8a
8a
=13
8g
8e
4d
=14
8a
8a
8g
8e
=15
2d}
==
!!!AGN: Xiaodiao. Qingge, Sichun
!!!ONB: ESAC (Essen Associative Code) Database: CHINA
!!!AMT: simple duple
!!!AIN: vox
!!!EED: Helmut Schaffrath
!!!EEV: 1.0
*-
